flags/dm.svg

<svg width="512" height="512" viewBox="0 0 512 512" fill="none" xmlns="http://www.w3.org/2000/svg">
<rect width="512" height="512" fill="var(--flag-palette-dark-green, #496e2d)"/>
<path fill-rule="evenodd" clip-rule="evenodd" d="M272 0H240V240H0V272H240V512H272V272H512V240H272V0Z" fill="var(--flag-palette-black, #333333)"/>
<path fill-rule="evenodd" clip-rule="evenodd" d="M304 0H272V272L0 272V304L272 304V512H304V304H512V272H304V0Z" fill="var(--flag-palette-white, #eeeeee)"/>
<path fill-rule="evenodd" clip-rule="evenodd" d="M240 0H208V208H0V240H208V512H240V240L512 240V208L240 208V0Z" fill="var(--flag-palette-yellow, #ffda44)"/>
<path d="M256.001 378.435C323.62 378.435 378.436 323.619 378.436 256C378.436 188.381 323.62 133.565 256.001 133.565C188.382 133.565 133.566 188.381 133.566 256C133.566 323.619 188.382 378.435 256.001 378.435Z" fill="var(--flag-palette-bright-red, #d80027)"/>
<path d="M283.895 269.66C274.788 251.447 262.951 232.987 262.951 232.987C262.951 232.987 263.245 224.582 263.245 219.574C263.245 212.03 257.129 205.914 249.585 205.914C242.438 205.914 236.582 211.405 235.985 218.396C230.365 218.763 225.918 223.425 225.918 229.137C225.918 233.29 228.271 236.889 231.715 238.688C233.427 234.684 236.779 231.558 240.925 230.133C241.601 230.686 242.327 231.18 243.102 231.599L244.852 232.437C244.852 232.437 238.363 250.728 238.363 260.554C238.363 288.178 256.577 296.697 256.577 296.697V296.982L247.47 306.088H265.683V287.874L274.79 296.981C274.87 296.81 292.04 285.951 283.895 269.66Z" fill="var(--flag-palette-dark-green, #496e2d)"/>
<path d="M256.001 155.826L260.145 168.58H273.555L262.706 176.463L266.851 189.217L256.001 181.335L245.151 189.217L249.296 176.463L238.447 168.58H251.857L256.001 155.826Z" fill="var(--flag-palette-dark-green, #496e2d)"/>
<path d="M197.122 174.958L207.97 182.841L218.82 174.957L214.676 187.713L225.526 195.594L212.115 195.595L207.971 208.349L203.826 195.595L190.416 195.594L201.265 187.711L197.122 174.958Z" fill="var(--flag-palette-dark-green, #496e2d)"/>
<path d="M160.73 225.045H174.139L178.284 212.291L182.428 225.045L195.839 225.044L184.99 232.928L189.135 245.682L178.284 237.799L167.435 245.681L171.578 232.927L160.73 225.045Z" fill="var(--flag-palette-dark-green, #496e2d)"/>
<path d="M160.73 286.955L171.578 279.074L167.434 266.319L178.284 274.202L189.134 266.319L184.99 279.073L195.84 286.956L182.428 286.957L178.284 299.71L174.139 286.955H160.73Z" fill="var(--flag-palette-dark-green, #496e2d)"/>
<path d="M197.121 337.042L201.264 324.29L190.414 316.407H203.825L207.97 303.652L212.114 316.406H225.525L214.675 324.29L218.819 337.043L207.969 329.16L197.121 337.042Z" fill="var(--flag-palette-dark-green, #496e2d)"/>
<path d="M256.001 356.174L251.857 343.422H238.447L249.296 335.538L245.151 322.784L256.001 330.665L266.85 322.783L262.706 335.538L273.555 343.421L260.145 343.422L256.001 356.174Z" fill="var(--flag-palette-dark-green, #496e2d)"/>
<path d="M314.881 337.042L304.033 329.16L293.184 337.044L297.327 324.29L286.477 316.407L299.888 316.406L304.031 303.652L308.177 316.407H321.587L310.738 324.29L314.881 337.042Z" fill="var(--flag-palette-dark-green, #496e2d)"/>
<path d="M351.272 286.955H337.863L333.718 299.71L329.574 286.957H316.162L327.012 279.073L322.867 266.32L333.718 274.202L344.566 266.32L340.424 279.074L351.272 286.955Z" fill="var(--flag-palette-dark-green, #496e2d)"/>
<path d="M351.272 225.044L340.424 232.926L344.567 245.68L333.718 237.798L322.868 245.682L327.012 232.927L316.162 225.046L329.574 225.044L333.717 212.292L337.863 225.044H351.272Z" fill="var(--flag-palette-dark-green, #496e2d)"/>
<path d="M314.881 174.958L310.738 187.711L321.587 195.594H308.177L304.033 208.349L299.888 195.595L286.477 195.596L297.327 187.711L293.183 174.959L304.033 182.84L314.881 174.958Z" fill="var(--flag-palette-dark-green, #496e2d)"/>
</svg>

<svg xmlns="http://www.w3.org/2000/svg" width="512" height="512" fill="none"><path fill="var(--flag-palette-dark-green, #496e2d)" d="M0 0h512v512H0z"/><path fill="#333" fill-rule="evenodd" d="M272 0h-32v240H0v32h240v240h32V272h240v-32H272z" clip-rule="evenodd"/><path fill="#EEE" fill-rule="evenodd" d="M304 0h-32v272H0v32h272v208h32V304h208v-32H304z" clip-rule="evenodd"/><path fill="var(--flag-palette-yellow, #ffda44)" fill-rule="evenodd" d="M240 0h-32v208H0v32h208v272h32V240h272v-32H240z" clip-rule="evenodd"/><path fill="var(--flag-palette-bright-red, #d80027)" d="M256 378.4a122.4 122.4 0 1 0 0-244.8 122.4 122.4 0 0 0 0 244.8"/><path fill="var(--flag-palette-dark-green, #496e2d)" d="M283.9 269.7c-9.1-18.3-21-36.7-21-36.7s.3-8.4.3-13.4a13.7 13.7 0 0 0-27.2-1.2 10.8 10.8 0 0 0-4.3 20.3q2.7-6.2 9.2-8.6l2.2 1.5 1.8.8s-6.5 18.3-6.5 28.2c0 27.6 18.2 36.1 18.2 36.1v.3l-9.1 9h18.2v-18l9 9c.2 0 17.3-11 9.2-27.2m-27.9-114 4.1 12.8h13.5l-10.9 7.9 4.2 12.7-10.9-7.9-10.8 8 4.1-12.8-10.9-8H252zM197.1 175l10.9 7.8 10.8-7.8-4.1 12.7 10.8 7.9h-13.4l-4.1 12.7-4.2-12.7h-13.4l10.9-7.9zm-36.4 50h13.4l4.2-12.7 4.1 12.7h13.4l-10.8 8 4.1 12.7-10.8-7.9-10.9 7.9 4.2-12.8zm0 62 10.9-8-4.2-12.7 10.9 7.9 10.8-7.9-4.1 12.8 10.8 7.9h-13.4l-4.1 12.7L174 287zm36.4 50 4.2-12.7-10.9-7.9h13.4l4.2-12.7 4.1 12.7h13.4l-10.8 7.9 4.1 12.7-10.8-7.8zm58.9 19.2-4.1-12.8h-13.5l10.9-7.9-4.1-12.7 10.8 7.9 10.9-8-4.2 12.8 10.9 8H260zm58.9-19.2-10.9-7.8-10.8 7.8 4.1-12.7-10.8-7.9h13.4l4.1-12.7 4.2 12.7h13.4l-10.9 7.9zm36.4-50h-13.4l-4.2 12.7-4.1-12.7h-13.4l10.8-8-4.1-12.7 10.8 7.9 10.9-7.9-4.2 12.8zm0-62-10.9 8 4.2 12.7-10.9-7.9-10.8 7.9 4.1-12.8-10.8-7.9h13.4l4.1-12.7L338 225zm-36.4-50-4.2 12.7 10.9 7.9h-13.4l-4.2 12.7-4.1-12.7h-13.4l10.8-7.9-4.1-12.7 10.8 7.8z"/></svg>
